X:0748
T:Sir John Stewart of Grandtully's Strathspey.
M:C
L:1/8
Q:1/4=120
I: :: ||
N:bar 9 printed as |g2 bagf gefd|
Z:Jack Campin * www.campin.me.uk * 2009
K:G
d|BG````Gd       B/c/d/B/ Gd   |gd       B/c/d/B/ cAAd   |\
  B(G```G)d      B/c/d/B/ Gd   |g2       b/a/g/f/ gGG   :|
d|g2    b/a/g/f/ gefd          |f/g/a    g/a/b    aee>f  |\
  g2    b/a/g    aefd          |ged>c             B(GG>)d|
  g2    b/a/g/f/ gefd          |f/g/a    g/a/b    aee>f  |\
  b/a/g a/g/e    g/e/d    e/d/c|B/c/d/B/ A/B/c/A/ BGG   |]

